!!!COM: Jean-Baptiste Lully
!!!OTL: La Descente de mars
!!!system-decoration: ([(s1,s2,s3)]s4{(s5,s6)})
**kern	**kern	**kern	**kern	**kern	**kern	**kern	**kern	**kern	**kern	**kern	**kern	**kern	**kern	**kern	**kern	**kern	**kern	**kern	**kern	**kern	**kern	**kern	**kern	**kern	**kern
*part6	*part5	*part4	*part4	*part4	*part4	*part4	*part4	*part3	*part3	*part3	*part3	*part3	*part3	*part2	*part2	*part2	*part2	*part2	*part2	*part1	*part1	*part1	*part1	*part1	*part1
*staff26	*staff25	*staff24	*staff23	*staff22	*staff21	*staff20	*staff19	*staff18	*staff17	*staff16	*staff15	*staff14	*staff13	*staff12	*staff11	*staff10	*staff9	*staff8	*staff7	*staff6	*staff5	*staff4	*staff3	*staff2	*staff1
*	*	*I'Timp.	*	*	*	*	*	*I'C Tpt. 3	*	*	*	*	*	*I'C Tpt. 2	*	*	*	*	*	*I'C Tpt. 1	*	*	*	*	*
*	*	*I"Timpani	*	*	*	*	*	*I"Trumpet in C 3	*	*	*	*	*	*I"Trumpet in C 2	*	*	*	*	*	*I"Trumpet in C 1	*	*	*	*	*
*clefF4	*clefG2	*clefF4	*clefG2	*clefG2	*clefG2
*M3/4	*M3/4	*M3/4	*M3/4	*M3/4	*M3/4
!	!	!	!	!	!LO:TX:a:i:t=Allegro vivace
4C 4G 4c	4e 4g 4cc	8CL	8cL	8gL	8ccL
.	.	16C	16c	16g	16cc
.	.	16CJ	16cJ	16gJ	16ccJ
4r	4r	8CL	8cL	8gL	8ccL
.	.	8CJ	8cJ	8gJ	8ccJ
4r	4r	8CL	8cL	8gL	8ccL
.	.	8CJ	8cJ	8gJ	8ccJ
=2	=2	=2	=2	=2	=2
4C	4c	4C	4c	8gL	8ccL
.	.	.	.	8eJ	8gJ
4E	4e	4C	4c	8gL	8ccL
.	.	.	.	8eJ	8gJ
4G	4g	4C	4c	8gL	8ccL
.	.	.	.	8eJ	8gJ
=3	=3	=3	=3	=3	=3
4C	4e 4g 4cc	8CL	8cL	8gL	8ccL
.	.	16C	16c	8gJ	8ccJ
.	.	16CJ	16cJ	.	.
4r	4r	8CL	8cL	8ccL	8eeL
.	.	8CJ	8cJ	8gJ	8ccJ
4r	4r	8CL	8cL	8ccL	8eeL
.	.	8CJ	8cJ	8eeJ	8ggJ
=4	=4	=4	=4	=4	=4
4C	4c	4C	4c	8ccL	8eeL
.	.	.	.	8gJ	8ccJ
4E	4e	4C	4c	8ccL	8eeL
.	.	.	.	8eeJ	8ggJ
4G	4g	4C	4c	8ccL	8eeL
.	.	.	.	8gJ	8ccJ
=5	=5	=5	=5	=5	=5
4C	4e 4g 4cc	8CL	8cL	8gL	8ccL
.	.	16C	16c	8eJ	8gJ
.	.	16CJ	16cJ	.	.
4r	4r	8CL	8cL	8gL	8ccL
.	.	8CJ	8cJ	16g	16cc
.	.	.	.	16gJ	16ccJ
4r	4r	8CL	8cL	8gL	8ccL
.	.	8CJ	8cJ	8gJ	8ccJ
=6	=6	=6	=6	=6	=6
2C	2e 2g 2cc	2C	2c	2e	2cc
4r	4r	4r	4r	4r	4r
=7	=7	=7	=7	=7	=7
2.C	2.e 2.g	2.r	2.r	4.cc	4.ee
.	.	.	.	8dd	8ff
.	.	.	.	4ee	4gg
!!LO:LB
=8	=8	=8	=8	=8	=8
2.BB	2.f 2.g	2.r	2.r	4dd	4.ff
.	.	.	.	4g	.
.	.	.	.	.	8gg
.	.	.	.	4g	4ff
=9	=9	=9	=9	=9	=9
2.C	2.e 2.g	2.r	2.r	4cc	4.ee
.	.	.	.	4c	.
.	.	.	.	.	8dd
.	.	.	.	4c	8ccL
.	.	.	.	.	8ddJ
=10	=10	=10	=10	=10	=10
4BB	4f 4g	2.r	2.r	2g	2dd
4GG	4d 4f	.	.	.	.
4BB	4d 4g	.	.	4g	4dd
=11	=11	=11	=11	=11	=11
2.C	2.e 2.g	2.C	4.c	4.cc	4.ee
.	.	.	8g	8dd	8ff
.	.	.	4g	4ee	4gg
=12	=12	=12	=12	=12	=12
2BB	2f 2g	4r	4g	4dd	4.ff
.	.	4GG	4g	4g	.
.	.	.	.	.	8gg
4C	4e 4g	4C	4g	4cc	4ee
=13	=13	=13	=13	=13	=13
4C	4c 4e	2C	2g	4c	4.ee
4G	4d 4f	.	.	2g	.
.	.	.	.	.	8ff
4GG	4e 4g	4GG	4g	.	4dd
=14	=14	=14	=14	=14	=14
2.C	2.e 2.g	2.C	2.e	2.c	2.cc
=15	=15	=15	=15	=15	=15
4C 4G 4c	4e 4g 4cc	8CL	8cL	8gL	8ccL
.	.	16C	16c	16g	16cc
.	.	16CJ	16cJ	16gJ	16ccJ
4r	4r	8CL	8cL	8gL	8ccL
.	.	8CJ	8cJ	8gJ	8ccJ
4r	4r	8CL	8cL	8gL	8ccL
.	.	8CJ	8cJ	8gJ	8ccJ
=16	=16	=16	=16	=16	=16
4C	4c	4C	4c	8gL	8ccL
.	.	.	.	8eJ	8gJ
4E	4e	4C	4c	8gL	8ccL
.	.	.	.	8eJ	8gJ
4G	4g	4C	4c	8gL	8ccL
.	.	.	.	8eJ	8gJ
=17	=17	=17	=17	=17	=17
4C	4e 4g 4cc	8CL	8cL	8gL	8ccL
.	.	16C	16c	8gJ	8ccJ
.	.	16CJ	16cJ	.	.
4r	4r	8CL	8cL	8ccL	8eeL
.	.	8CJ	8cJ	8gJ	8ccJ
4r	4r	8CL	8cL	8ccL	8eeL
.	.	8CJ	8cJ	8eeJ	8ggJ
=18	=18	=18	=18	=18	=18
4C	4c	4C	4c	8ccL	8eeL
.	.	.	.	8gJ	8ccJ
4E	4e	4C	4c	8ccL	8eeL
.	.	.	.	8eeJ	8ggJ
4G	4g	4C	4c	8ccL	8eeL
.	.	.	.	8gJ	8ccJ
=19	=19	=19	=19	=19	=19
4C	4e 4g 4cc	8CL	8cL	8gL	8ccL
.	.	16C	16c	8eJ	8gJ
.	.	16CJ	16cJ	.	.
4r	4r	8CL	8cL	8gL	8ccL
.	.	8CJ	8cJ	16g	16cc
.	.	.	.	16gJ	16ccJ
4r	4r	8CL	8cL	8gL	8ccL
.	.	8CJ	8cJ	8gJ	8ccJ
=20	=20	=20	=20	=20	=20
2C	2e 2g 2cc	2C	2c	2e	2cc
!	!LO:TX:iB:t=Fine	!LO:TX:iB:t=Fine	!LO:TX:iB:t=Fine	!LO:TX:iB:t=Fine	!LO:TX:iB:t=Fine
4r	4r	4r	4r	4r	4r
=21	=21	=21	=21	=21	=21
2.C	2.e 2.g	2C	4.g	4.cc	4.ee
.	.	.	8g	8dd	8ff
.	.	4r	4cc	4ee	4gg
=22	=22	=22	=22	=22	=22
2c	2e 2cc	2C	4cc	8eeL	8ggL
.	.	.	.	8ffJ	8aaJ
.	.	.	4cc	8eeL	8ggL
.	.	.	.	8ddJ	8ffJ
4C	4e 4g	4r	4g	4cc	4ee
!!LO:LB
=23	=23	=23	=23	=23	=23
2.C	2.e 2.g	2C	4g	4cc	8ffL
.	.	.	.	.	8eeJ
.	.	.	4.g	2c	4.eeT
.	.	4r	.	.	.
.	.	.	8g	.	8dd
=24	=24	=24	=24	=24	=24
2.GG	2.d 2.g	2GG	2.G	2.g	2.dd
.	.	4r	.	.	.
=25	=25	=25	=25	=25	=25
4GG	4B 4d 4g	8GGL	8gL	8ddL	8ggL
.	.	16GG	16g	16dd	16gg
.	.	16GGJ	16gJ	16ddJ	16ggJ
4r	4r	8GGL	8gL	8ddL	8ggL
.	.	8GGJ	8gJ	8ddJ	8ggJ
4r	4r	8GGL	8gL	8ddL	8ggL
.	.	8GGJ	8gJ	8ddJ	8ggJ
=26	=26	=26	=26	=26	=26
4GG	4B 4d 4g	8GGL	8gL	8ddL	8ggL
.	.	16GG	8gJ	8ggJ	8ddJ
.	.	16GGJ	.	.	.
4r	4r	8GGL	8gL	8ddL	8ggL
.	.	8GGJ	8gJ	8ggJ	8ddJ
4r	4r	8GGL	8gL	8ddL	8ggL
.	.	16GG	16g	16dd	16gg
.	.	16GGJ	16gJ	16ddJ	16ggJ
=27	=27	=27	=27	=27	=27
2.GG	2.B 2.d 2.g	2.GG	2.g	2.dd	2.gg
=:|!	=:|!	=:|!	=:|!	=:|!	=:|!
*-	*-	*-	*-	*-	*-
